X: 2
T: The Blacksmith's Daughter
R: reel
M: 4/4
L: 1/8
K: Gmaj
G2 GG DGBG|G2 Bd cAFA|G2 GG DGBG|AFDF ABcA|
GG G2 DGBG|G2 Bd cAFA|d2 cA BGAF|DEED Acdc:|
d2 B2 dBGB|dB B2 deed|dB B2 dBGB|AFDF ABcA|
d2 B2 dBGB|dB B2 deed|d2 cA BGAF|DEED ABcA:|

